assets/img/braze_icons/bar-chart-01.svg

<svg fill="none" height="24" viewBox="0 0 24 24" width="24" xmlns="http://www.w3.org/2000/svg"><g clip-rule="evenodd" fill="#801ed7" fill-rule="evenodd"><path d="m18 9c.5523 0 1 .44772 1 1v10c0 .5523-.4477 1-1 1s-1-.4477-1-1v-10c0-.55228.4477-1 1-1z"/><path d="m6 13c.55228 0 1 .4477 1 1v6c0 .5523-.44772 1-1 1s-1-.4477-1-1v-6c0-.5523.44772-1 1-1z"/><path d="m12 3c.5523 0 1 .44772 1 1v16c0 .5523-.4477 1-1 1s-1-.4477-1-1v-16c0-.55228.4477-1 1-1z"/></g></svg>

<svg width="24" height="24" viewBox="0 0 24 24" fill="none" xmlns="http://www.w3.org/2000/svg">
<path fill-rule="evenodd" clip-rule="evenodd" d="M18 9C18.5523 9 19 9.44772 19 10V20C19 20.5523 18.5523 21 18 21C17.4477 21 17 20.5523 17 20V10C17 9.44772 17.4477 9 18 9Z" fill="#801ED7"/>
<path fill-rule="evenodd" clip-rule="evenodd" d="M6 13C6.55228 13 7 13.4477 7 14V20C7 20.5523 6.55228 21 6 21C5.44772 21 5 20.5523 5 20V14C5 13.4477 5.44772 13 6 13Z" fill="#801ED7"/>
<path fill-rule="evenodd" clip-rule="evenodd" d="M12 3C12.5523 3 13 3.44772 13 4V20C13 20.5523 12.5523 21 12 21C11.4477 21 11 20.5523 11 20V4C11 3.44772 11.4477 3 12 3Z" fill="#801ED7"/>
</svg>
